packages/ui-icons/svg/Line/invitation.svg

<svg viewBox="0 0 1920 1920" version="1.1" xmlns="http://www.w3.org/2000/svg">
    <path d="M338.789647,-0.0112941176 L338.789647,527.649882 L-0.0338823529,821.296941 L-0.0338823529,1919.98871 L1919.96612,1919.98871 L1919.96612,821.296941 L1581.25553,527.649882 L1581.25553,-0.0112941176 L338.789647,-0.0112941176 Z M451.730824,1203.94165 L451.730824,112.929882 L1468.20141,112.929882 L1468.20141,1203.94165 L1278.912,1355.28282 L641.020235,1355.28282 L451.730824,1203.94165 Z M1581.25553,677.071059 L1807.13788,872.798118 L1807.13788,932.882824 L1581.25553,1113.58871 L1581.25553,677.071059 Z M112.907294,932.882824 L112.907294,872.798118 L338.789647,677.071059 L338.789647,1113.58871 L112.907294,932.882824 Z M1807.13788,1077.56047 L1807.13788,1700.88282 L1569.05788,1399.32988 L1480.39906,1469.35341 L1747.05318,1807.04753 L172.879059,1807.04753 L439.646118,1469.35341 L350.987294,1399.32988 L112.907294,1700.88282 L112.907294,1077.56047 L601.377882,1468.33694 L1318.66729,1468.33694 L1807.13788,1077.56047 Z M1016.47059,282.352941 L1016.47059,564.705882 L1298.82353,564.705882 L1298.82353,677.647059 L1016.47059,677.647059 L1016.47059,960 L903.529412,960 L903.529412,677.647059 L621.176471,677.647059 L621.176471,564.705882 L903.529412,564.705882 L903.529412,282.352941 L1016.47059,282.352941 Z" stroke="none" stroke-width="1" fill-rule="evenodd"/>
</svg>

<svg viewBox="0 0 1920 1920" version="1.1" xmlns="http://www.w3.org/2000/svg">
    <path d="M338.79-.011v527.66L-.034 821.298v1098.692h1920V821.297l-338.71-293.647V-.011H338.79zm112.94 1203.953V112.93h1016.471v1091.012l-189.289 151.34H641.02l-189.29-151.34zm1129.526-526.87l225.882 195.726v60.085l-225.882 180.706V677.07zM112.907 932.881v-60.084L338.79 677.071v436.518L112.907 932.883zm1205.76 535.455l488.47-390.777v623.323l-238.08-301.553-88.658 70.023 266.654 337.695H172.88l266.767-337.695-88.659-70.023-238.08 301.553V1077.56l488.47 390.777h717.29zM903.53 960V677.647H621.176V564.706H903.53V282.353h112.942v282.353h282.353v112.941H1016.47V960H903.529z" stroke="none" stroke-width="1" fill-rule="evenodd"/>
</svg>
